!!!!SEGMENT: Any1007a-Missa_Salve_regina-Kyrie--Vienna_4810.krn
!!!id: Any1007a
!!!SMS: Vienna 4810
!!!AGN: Mass; Kyrie
!!!voices: 4
!!!OPR: Missa Salve regina (Vienna 4810)
!!!COM: Anonymous
!!!OTL: Kyrie
**kern	**kern	**kern	**kern
*part4	*part3	*part2	*part1
*staff4	*staff3	*staff2	*staff1
*I"Bassus	*I"Tenor	*I"Altus	*I"Superius
*I'B	*I'T	*I'A	*I'S
*clefF4	*clefGv2	*clefGv2	*clefG2
*k[b-]	*k[b-]	*k[b-]	*k[b-]
*F:	*F:	*F:	*F:
*M2/1	*M2/1	*M2/1	*M2/1
*met(C)	*met(C)	*met(C)	*met(C)
=1	=1	=1	=1
!!section: Kyrie I
!!!OMD: Kyrie I
0r	0d	0r	0r
=2	=2	=2	=2
0r	1c	0r	0r
.	1d	.	.
=3	=3	=3	=3
0G	1G	0r	0r
.	1r	.	.
=4	=4	=4	=4
1F	0d	0r	0r
1G	.	.	.
=5	=5	=5	=5
2.C	1c	0r	0r
4D	.	.	.
4E	2B-y	.	.
4F	.	.	.
[2G	2G	.	.
=6	=6	=6	=6
2G]	1A	0r	1r
2F#i	.	.	.
1G	1G	.	[1dd
=7	=7	=7	=7
1B-y	1d	0r	1dd]
1A	2.e-X	.	1cc
.	4d	.	.
=8	=8	=8	=8
4G	2B-y	0g	1dd
4F	.	.	.
4E	2G	.	.
4D	.	.	.
1E	2B-y	.	1g
.	2c	.	.
=9	=9	=9	=9
1D	2d	1f	2r
.	2A	.	2.dd
2r	2B-y	2g	.
.	.	.	4cc
[2G	4G	2d	[2b-y
.	4A	.	.
=10	=10	=10	=10
4G]	4B-y	2e	4b-]
4F	4c	.	4a
4E	2d	2.d	1a
4D	.	.	.
1E	1G	.	.
.	.	4c	.
.	.	2c	[2g
=11	=11	=11	=11
1D	1A	0d	2g]
.	.	.	2f#i
1G	2r	.	1g
.	2G	.	.
=12	=12	=12	=12
2r	2A	0r	0r
2D	2B-y	.	.
2E	2c	.	.
2F	2d	.	.
=13	=13	=13	=13
2G	2e	0r	0r
2B-y	2g	.	.
2A	2f	.	.
[2G	[2e	.	.
=14	=14	=14	=14
4G]	4e]	0r	1r
4F	4d	.	.
4E	1d	.	.
4D	.	.	.
1E	.	.	2r
.	2c#i	.	2g
=15	=15	=15	=15
1D	1d	2r	2a
.	.	2d	2b-y
1r	1r	2e	2cc
.	.	2f	2dd
=16	=16	=16	=16
0r	0r	2g	2ee
.	.	2b-y	2gg
.	.	2a	2ff
.	.	[2g	[2ee
=17	=17	=17	=17
0r	0r	4g]	4ee]
.	.	4f	4dd
.	.	4e	1dd
.	.	4d	.
.	.	1e	.
.	.	.	2cc#i
=18	=18	=18	=18
1G	2.B-y	0d	2.dd
.	4c	.	4cc
2G	2d	.	4b-y
.	.	.	4a
[2G	4G	.	2b-y
.	4A	.	.
=19	=19	=19	=19
4G]	4B-y	1r	2g
4F	4c	.	.
4E	2d	.	1b-y
4D	.	.	.
1E	2B-y	2r	.
.	2c	2G	4a
.	.	.	4g
=20	=20	=20	=20
1D	1d	2A	1f
.	.	2.B-y	.
2r	1r	.	1f
.	.	4c	.
2B-y	.	2d	.
=21	=21	=21	=21
2.c	0r	2e	0r
.	.	2g	.
4B-y	.	.	.
2A	.	2f	.
[2G	.	[2e	.
=22	=22	=22	=22
4G]	1r	4e]	0r
4F	.	4d	.
4E	.	1d	.
4D	.	.	.
1E	2r	.	.
.	2G	2c#i	.
=23	=23	=23	=23
2D	4A	1.d	2r
.	4F	.	.
2BB-y	1f	.	2d
2D	.	.	2f
2E	2e	2c	2g
=24	=24	=24	=24
1F	2d	2A	2a
.	2c	1f	2cc
2BB-y	2.d	.	2b-y
2C	.	2e	[2a
.	4c	.	.
=25	=25	=25	=25
2D	2B-y	2d	4a]
.	.	.	4g
2E-i	4A	2c	1g
.	4G	.	.
1D	1A	1d	.
.	.	.	2f#i
=26	=26	=26	=26
0Gl	0Gl	0dl	0gl
=27||	=27||	=27||	=27||
*M2/1	*M2/1	*M2/1	*M2/1
*met(C|)	*met(C)	*met(C|)	*met(C)
!!section: Christe
!!!OMD: Christe
0r	0G	0r	0r
=28	=28	=28	=28
0r	1B-y	0r	0r
.	1c	.	.
=29	=29	=29	=29
0D	1d	0r	0r
.	1r	.	.
=30	=30	=30	=30
1F	0d	0r	0r
1G	.	.	.
=31	=31	=31	=31
1A	1c	0r	0r
2r	[1f	.	.
[2D	.	.	.
=32	=32	=32	=32
4D]	2f]	0r	0r
4E	.	.	.
4F	4e	.	.
4G	4d	.	.
2A	2c	.	.
2B-y	2d	.	.
=33	=33	=33	=33
1G	4e	0r	0r
.	4d	.	.
.	1g	.	.
1A	.	.	.
.	2f#i	.	.
=34	=34	=34	=34
2.G	1g	0r	0g
4A	.	.	.
2B-y	2r	.	.
2c	[2g	.	.
=35	=35	=35	=35
2G	4g]	0r	1b-y
.	4f	.	.
2B-y	4e	.	.
.	4d	.	.
1A	1e	.	1cc
=36	=36	=36	=36
0D	1d	0d	1dd
.	2r	.	1r
.	[2d	.	.
=37	=37	=37	=37
0r	4d]	1f	0dd
.	4c	.	.
.	4B-y	.	.
.	4A	.	.
.	1B-y	1g	.
=38	=38	=38	=38
0r	1A	1a	1cc
.	1r	1d	2.ff
.	.	.	4ee
=39	=39	=39	=39
0r	0r	2e	2cc
.	.	2f	1dd
.	.	1g	.
.	.	.	4cc
.	.	.	4b-y
=40	=40	=40	=40
0r	1r	2.f	4a
.	.	.	4g
.	.	.	2cc
.	.	4e	.
.	2r	2d	2b-y
.	2F	2c	[2a
=41	=41	=41	=41
0r	2A	4c	4a]
.	.	4B-y	4g
.	2B-y	4A	1g
.	.	4G	.
.	1c	1A	.
.	.	.	2f#i
=42	=42	=42	=42
1r	2.B-y	0G	0g
.	4c	.	.
2r	2d	.	.
2C	2e-i	.	.
=43	=43	=43	=43
2E	2c	0r	0r
2F	1d	.	.
1G	.	.	.
.	4c	.	.
.	4B-y	.	.
=44	=44	=44	=44
2.F	4A	0r	0r
.	4B-y	.	.
.	4c	.	.
4E	4d	.	.
2C	2e	.	.
2D	[2f	.	.
=45	=45	=45	=45
2F	4f]	2r	0r
.	4e	.	.
2G	1d	2d	.
1E	.	2e	.
.	2c#i	2g	.
=46	=46	=46	=46
2D	2d	2f	1r
2C	2G	2e	.
2D	1B-y	2f	2r
2E	.	4e	2g
.	.	4d	.
=47	=47	=47	=47
1F	1A	4c	2a
.	.	4B-y	.
.	.	2c	2cc
2r	2G	2d	2b-y
2D	2F	2f	[2a
=48	=48	=48	=48
1E	1G	2e	4a]
.	.	.	4g
.	.	2c	1g
1D	1A	1d	.
.	.	.	2f#i
=49	=49	=49	=49
1r	1G	0B-y	0g
1G	1r	.	.
=50	=50	=50	=50
2F	0d	0r	0r
2.G	.	.	.
4F	.	.	.
2D	.	.	.
=51	=51	=51	=51
2E	1c	0r	0r
2F	.	.	.
2BB-y	2.d	.	.
[2F	.	.	.
.	4c	.	.
=52	=52	=52	=52
4F]	4A	0r	0r
4E	4B-y	.	.
4D	1c	.	.
4C	.	.	.
1D	.	.	.
.	2BnXi	.	.
=53	=53	=53	=53
0C	1c	1r	0r
.	1G	1g	.
=54	=54	=54	=54
0r	0r	2e	0cc
.	.	2.f	.
.	.	4e	.
.	.	2c	.
=55	=55	=55	=55
0r	0r	2d	1b-y
.	.	1e	.
.	.	.	2.cc
.	.	2f	.
.	.	.	4b-y
=56	=56	=56	=56
0r	0r	1B-y	4g
.	.	.	4a
.	.	.	1b-y
.	.	1c	.
.	.	.	2a
=57	=57	=57	=57
1G	2r	1B-y	0b-y
.	2.g	.	.
2G	.	1r	.
.	4f	.	.
[2G	4e	.	.
.	4d	.	.
=58	=58	=58	=58
4G]	2e	1r	0a
4F	.	.	.
4E	1d	.	.
4D	.	.	.
1E	.	1G	.
.	2c#i	.	.
=59	=59	=59	=59
0D	1d	0A	0f
.	2r	.	.
.	[2d	.	.
=60	=60	=60	=60
1G	4d]	2G	0b-y
.	4c	.	.
.	4B-y	2.g	.
.	4A	.	.
2G	2B-y	.	.
.	.	4f	.
[2G	2G	4e	.
.	.	4d	.
=61	=61	=61	=61
4G]	2B-y	2e	0g
4F	.	.	.
4E	1A	2.d	.
4D	.	.	.
1E	.	.	.
.	.	4c#i	.
.	2G	4c#i	.
.	.	4BnXi	.
=62	=62	=62	=62
0Dl	0Al	0dl	0fl
=63||	=63||	=63||	=63||
*M2/1	*M2/1	*M2/1	*M2/1
*met(C)	*met(C)	*met(C)	*met(C)
!!section: Kyrie II
!!!OMD: Kyrie II
0r	0G	0r	0r
=64	=64	=64	=64
0D	1F	0r	0r
.	1B-y	.	.
=65	=65	=65	=65
1C	1c	0r	0r
1F	[1d	.	.
=66	=66	=66	=66
1G	1d]	0r	0r
2A	1f	.	.
2D	.	.	.
=67	=67	=67	=67
2E	2c	0r	0r
2F	1d	.	.
2G	.	.	.
2A	2c	.	.
=68	=68	=68	=68
2r	1B-y	0r	0r
2.D	.	.	.
.	2.A	.	.
4E	.	.	.
4F	.	.	.
4G	4B-y	.	.
=69	=69	=69	=69
1A	4c	0r	1r
.	4d	.	.
.	1e	.	.
2.G	.	.	[1g
.	[2d	.	.
4F	.	.	.
=70	=70	=70	=70
1E	2d]	1r	1g]
.	2c#i	.	.
1D	1d	[1d	1f
=71	=71	=71	=71
0r	1B-y	1d]	1b-y
.	1A	1c	1cc
=72	=72	=72	=72
0r	0r	1f	0dd
.	.	1g	.
=73	=73	=73	=73
0r	0r	2a	1ff
.	.	2d	.
.	.	2e	2cc
.	.	2f	[2dd
=74	=74	=74	=74
0r	0r	2g	2dd]
.	.	2a	2cc
.	.	2r	1b-y
.	.	[2d	.
=75	=75	=75	=75
0r	0r	4d]	2.a
.	.	4e	.
.	.	4f	.
.	.	4g	4b-y
.	.	1a	4cc
.	.	.	4dd
.	.	.	[2ee
=76	=76	=76	=76
0r	1G	2.g	4ee]
.	.	.	4dd
.	.	.	1dd
.	.	4f	.
.	1A	1e	.
.	.	.	2cc#i
=77	=77	=77	=77
2r	1B-y	1d	1dd
2D	.	.	.
2E	2.c	1r	1r
2F	.	.	.
.	4A	.	.
=78	=78	=78	=78
2G	2B-y	0r	0r
2.C	2c	.	.
.	2.G	.	.
4D	.	.	.
4E	.	.	.
4F	4A	.	.
=79	=79	=79	=79
4G	4B-y	0r	0r
4A	4c	.	.
2.B-y	2.d	.	.
4A	4e	.	.
4G	[2f	.	.
4F	.	.	.
=80	=80	=80	=80
1G	2f]	0r	1g
.	2e	.	.
1F	[1f	.	1a
=81	=81	=81	=81
1BB-y	1f]	1d	1b-y
1r	1r	1e	2cc
.	.	.	2g
=82	=82	=82	=82
0r	0r	1f	2a
.	.	.	2cc
.	.	2g	4b-y
.	.	.	4a
.	.	[2f	4g
.	.	.	4f
=83	=83	=83	=83
1r	1r	2f]	1g
.	.	2e	.
2r	1d	2.f	1f
[2D	.	.	.
.	.	4d	.
=84	=84	=84	=84
2D]	2B-y	2d	0r
2C	2c	2.e	.
1F	1A	.	.
.	.	4d	.
.	.	[2d	.
=85	=85	=85	=85
1E	2r	2d]	1r
.	1G	2c#i	.
1D	.	[1d	2r
.	2F	.	[2b-y
=86	=86	=86	=86
1G	1B-y	1d]	4b-]
.	.	.	4g
.	.	.	1g
2E	1c	2r	.
2F	.	[2A	[2a
=87	=87	=87	=87
2D	2d	4A]	4a]
.	.	4B-y	4g
2E	2G	2c	1g
1D	1A	1d	.
.	.	.	2f#i
=88	=88	=88	=88
1G	2G	1d	2g
.	2.B-y	.	2dd
2r	.	2r	2b-y
.	4A	.	.
2A	2F	2c	[2cc
=89	=89	=89	=89
2F	2r	2f	4cc]
.	.	.	4a
2.G	2.B-y	2.d	2b-y
.	.	.	2g
4E	4c	4e	.
2F	[2A	2c	2a
=90	=90	=90	=90
2D	4A]	2d	2f
.	4B-y	.	.
2E	2.G	2B-y	2g
2C	.	2c	2cc
.	4A	.	.
2G	2B-y	2d	[2b-y
=91	=91	=91	=91
2E	2c	2e-X	4b-]
.	.	.	4g
2.F	2.A	2.c	2a
.	.	.	2f
4D	4B-y	4d	.
2E	2G	2B-y	[2g
=92	=92	=92	=92
2C	2r	2c	4g]
.	.	.	4e
2.D	1d	2.A	2f
.	.	.	2d
4BB-y	.	4B-y	.
2C	4c	2G	2e
.	4B-y	.	.
=93	=93	=93	=93
2D	2A	2d	2f
2E-i	2G	2c	2.g
1D	1A	1d	.
.	.	.	4f#i
.	.	.	2f#i
=94	=94	=94	=94
0Gl	0Gl	0dl	0gl
==	==	==	==
*-	*-	*-	*-
!!!system-decoration: s1,s2,s3,s4
!!!RDF**kern: i = editorial accidental
!!!RDF**kern: l = terminal long
!!!ENC: Maura Sugg
!!!END: 2026/6/15
!!!EED: Benjamin Ory
!!!EEV: 2026/06/21
!!!YEC: Copyright 2026 Benjamin Ory, All Rights Reserved
!!!ONB: Translated from MusicXML on 2026/06/21
!!!verovio: header encoded
!!!header-left: Edited by Zoe Saunders (2010)\n
!!!header-right:
!!!header-center:
!!muse2ps: T^@{OPR}^u^@{ONM}{. }@{OTL}^C^@{COM}^i2I150v90,90,90,120c120z18l2770t130
